X: 28007
T: Moving Cloud, The
R: reel
M: 4/4
K: Gmajor
DGAG EGBG|DGBG AGEG|cEG cBd ga|aged cEGE|
D3G~E3G|DGBG AGEG|cEGc BDGB|~A3B ~G3z|
DG~G2 EG~G2|DG~G2 AGEG|cEG cBd ga|aged cEGE|
D3G~E3G|DGBG AGEG|cEGc BDGB|~A3B ~G3z|
|:d2 bd adgd|~d2 bd adgd|e2 c'e beae|~e2 c'e baged2 bd adgd|
~d2 bd adgd|1 c'bac' bage|dBAB ~G3z:|2 cBAc BDGB|~A3B~G3z||
(3B^cd ^cdedBA|Bz ^cdedBd|ce~e2 fe~e2|feed edBA|
(3B^cd ^cdedBA|Bz ^cdedBA|BAAG GFFE|EDEF ~G3z|
(3B^cd ^cdedBA|Bz ^cdedBd|ce~e2 fe~e2|g2fd edBA|
(3B^cd ^cdedBA|Bz ^cdedBA|BDAD GDFD|EDEF ~G3z||

